static/icons/synchronize.svg

<svg xmlns="http://www.w3.org/2000/svg" width="48" height="48" fill="none">
  <path stroke="#7EBBE5" stroke-linecap="round" stroke-linejoin="round" stroke-width="2.8125" d="M21.9941 4.60499c1.1933-.12412 2.2603.68198 2.2503 1.88172-.0063.77037-.1178 1.72284-.4644 2.78103-.3062.93476-1.2178 1.47956-2.1851 1.65756-3.6978.6807-7.0851 2.9173-9.1125 6.4288-2.88005 4.9885-2.1598 11.0675 1.3545 15.228.7978-.6139 1.4873-1.1145 2.0741-1.5206 1.2757-.883 2.7987-.0578 2.7766 1.4935-.0346 2.4273-.3154 5.0652-.6231 7.2774-.1892 1.3609-1.3728 2.3541-2.7459 2.3042-2.2495-.0818-4.9202-.2655-7.33149-.6592-1.51426-.2474-2.05685-1.858-.97875-2.9497.54408-.551 1.22349-1.2053 2.06609-1.9673-5.13515-6.1014-6.18241-15.0022-1.96441-22.308C10.3592 8.62476 15.99 5.22954 21.9941 4.60499Zm4.0116 38.78941c-1.1933.124-2.2603-.6821-2.2504-1.8818.0064-.7703.1179-1.7229.4646-2.7811.3061-.9347 1.2177-1.4795 2.185-1.6576 3.6978-.6806 7.0852-2.9172 9.1125-6.4287 2.8801-4.9884 2.1598-11.0675-1.3546-15.2281-.7977.614-1.4872 1.1147-2.074 1.5208-1.2757.8829-2.7987.0577-2.7766-1.4936.0346-2.4273.3154-5.0652.623-7.27739.1893-1.36085 1.3729-2.35405 2.7459-2.30415 2.2496.08175 4.9203.26542 7.3316.6592 1.5142.2473 2.0568 1.85798.9787 2.9497-.544.55094-1.2235 1.20524-2.066 1.96724 5.1351 6.1014 6.1824 15.0022 1.9644 22.308-3.2492 5.6277-8.8801 9.0229-14.8841 9.6475Z"/>
</svg>

<svg width="48" height="48" viewBox="0 0 48 48" fill="none" xmlns="http://www.w3.org/2000/svg">
<path d="M21.9941 4.60499C23.1874 4.48087 24.2544 5.28697 24.2444 6.48671C24.2381 7.25708 24.1266 8.20955 23.78 9.26774C23.4738 10.2025 22.5622 10.7473 21.5949 10.9253C17.8971 11.606 14.5098 13.8426 12.4824 17.3541C9.60235 22.3426 10.3226 28.4216 13.8369 32.5821C14.6347 31.9682 15.3242 31.4676 15.911 31.0615C17.1867 30.1785 18.7097 31.0037 18.6876 32.555C18.653 34.9823 18.3722 37.6202 18.0645 39.8324C17.8753 41.1933 16.6917 42.1865 15.3186 42.1366C13.0691 42.0548 10.3984 41.8711 7.98711 41.4774C6.47285 41.23 5.93026 39.6194 7.00836 38.5277C7.55244 37.9767 8.23185 37.3224 9.07445 36.5604C3.9393 30.459 2.89204 21.5582 7.11004 14.2524C10.3592 8.62476 15.99 5.22954 21.9941 4.60499Z" stroke="#7EBBE5" stroke-width="2.8125" stroke-linecap="round" stroke-linejoin="round"/>
<path d="M26.0057 43.3944C24.8124 43.5184 23.7454 42.7123 23.7553 41.5126C23.7617 40.7423 23.8732 39.7897 24.2199 38.7315C24.526 37.7968 25.4376 37.252 26.4049 37.0739C30.1027 36.3933 33.4901 34.1567 35.5174 30.6452C38.3975 25.6568 37.6772 19.5777 34.1628 15.4171C33.3651 16.0311 32.6756 16.5318 32.0888 16.9379C30.8131 17.8208 29.2901 16.9956 29.3122 15.4443C29.3468 13.017 29.6276 10.3791 29.9352 8.16691C30.1245 6.80606 31.3081 5.81286 32.6811 5.86276C34.9307 5.94451 37.6014 6.12818 40.0127 6.52196C41.5269 6.76926 42.0695 8.37994 40.9914 9.47166C40.4474 10.0226 39.7679 10.6769 38.9254 11.4389C44.0605 17.5403 45.1078 26.4411 40.8898 33.7469C37.6406 39.3746 32.0097 42.7698 26.0057 43.3944Z" stroke="#7EBBE5" stroke-width="2.8125" stroke-linecap="round" stroke-linejoin="round"/>
</svg>
